tools/download-figma-icons/icons/solid/cold-water.svg

<svg width="24" height="24" viewBox="0 0 24 24" fill="none" xmlns="http://www.w3.org/2000/svg">
<path d="M13.4997 0.69661C13.3232 0.479185 13.1004 0.303855 12.8473 0.183421C12.5943 0.0629868 12.3176 0.000488271 12.0373 0.000488271C11.757 0.000488271 11.4802 0.0629868 11.2272 0.183421C10.9742 0.303855 10.7513 0.479185 10.5748 0.69661C8.94732 2.66602 2.99994 10.8731 2.99994 15.0141C2.99994 17.3973 3.94813 19.6829 5.63592 21.3681C7.32372 23.0533 9.61286 24 11.9998 24C14.3867 24 16.6758 23.0533 18.3636 21.3681C20.0514 19.6829 20.9996 17.3973 20.9996 15.0141C20.9996 10.8731 15.0522 2.66602 13.4997 0.69661ZM15.6597 16.1973C15.8327 16.2966 15.9592 16.4604 16.0112 16.6528C16.0633 16.8452 16.0366 17.0504 15.9372 17.2231C15.8879 17.3087 15.8223 17.3837 15.744 17.444C15.6657 17.5042 15.5763 17.5484 15.4809 17.5741C15.2882 17.6261 15.0827 17.5995 14.9097 17.5002L12.7497 16.2721V18.7208C12.7497 18.9194 12.6707 19.1099 12.5301 19.2503C12.3894 19.3907 12.1987 19.4696 11.9998 19.4696C11.8008 19.4696 11.6101 19.3907 11.4694 19.2503C11.3288 19.1099 11.2498 18.9194 11.2498 18.7208V16.2721L9.12731 17.5002C9.04163 17.5494 8.94708 17.5812 8.84907 17.5939C8.75107 17.6066 8.65151 17.5999 8.5561 17.5741C8.46069 17.5484 8.37129 17.5042 8.29301 17.444C8.21472 17.3837 8.14908 17.3087 8.09984 17.2231C8.05059 17.1376 8.0187 17.0432 8.006 16.9453C7.99329 16.8475 8.00002 16.7481 8.02578 16.6528C8.05155 16.5576 8.09586 16.4683 8.15618 16.3901C8.2165 16.312 8.29164 16.2464 8.37733 16.1973L10.4998 14.9767L8.37733 13.7561C8.29164 13.7069 8.2165 13.6414 8.15618 13.5632C8.09586 13.4851 8.05155 13.3958 8.02578 13.3005C8.00002 13.2053 7.99329 13.1059 8.006 13.008C8.0187 12.9102 8.05059 12.8158 8.09984 12.7302C8.14908 12.6447 8.21472 12.5696 8.29301 12.5094C8.37129 12.4492 8.46069 12.4049 8.5561 12.3792C8.74879 12.3272 8.95426 12.3538 9.12731 12.4531L11.2498 13.6812V11.2326C11.2498 11.034 11.3288 10.8435 11.4694 10.7031C11.6101 10.5626 11.8008 10.4837 11.9998 10.4837C12.1987 10.4837 12.3894 10.5626 12.5301 10.7031C12.6707 10.8435 12.7497 11.034 12.7497 11.2326V13.6812L14.8722 12.4531C15.0452 12.3538 15.2507 12.3272 15.4434 12.3792C15.6361 12.4312 15.8002 12.5574 15.8997 12.7302C15.9991 12.903 16.0258 13.1081 15.9737 13.3005C15.9217 13.4929 15.7952 13.6568 15.6222 13.7561L13.4997 14.9767L15.6597 16.1973Z" fill="black"/>
</svg>

<svg xmlns="http://www.w3.org/2000/svg" width="24" height="24" fill="none" viewBox="0 0 24 24"><path fill="currentColor" d="M13.5.697a1.88 1.88 0 0 0-2.273-.514c-.253.12-.476.296-.652.514C8.947 2.666 3 10.873 3 15.014c0 2.383.948 4.669 2.636 6.354a9.007 9.007 0 0 0 12.728 0A8.98 8.98 0 0 0 21 15.014c0-4.14-5.948-12.348-7.5-14.317m2.16 15.5a.751.751 0 1 1-.75 1.303l-2.16-1.228v2.449a.748.748 0 0 1-1.28.53.75.75 0 0 1-.22-.53v-2.449L9.127 17.5a.753.753 0 0 1-.97-1.11.8.8 0 0 1 .22-.193l2.123-1.22-2.123-1.22a.752.752 0 1 1 .75-1.304l2.123 1.228v-2.448a.748.748 0 0 1 1.28-.53c.14.14.22.331.22.53v2.448l2.122-1.228a.753.753 0 0 1 1.102.848.75.75 0 0 1-.352.455l-2.122 1.22z"/></svg>
